X: 1
T: Shanne Bradley
M: 3/4
L: 1/4
R: waltz
K: Dmaj
A |: d>ed | def | g>fe | fed | B>cd | AFD |1 EDD | D2 A :|2 EDD | D2 z ||
|: .a.a.a | f>ed | .a.a.a | f>ed |d>ef | gfe |
fed | B>AA |ABc | d>AA | FDD | D2 z :|
|: d.f.f | d.f.f | dfg | f>ed |B>cd | AFD | EDD | D2 z :|
d.f.f | d.f.f | dfg | f>ed |ABc | d>DD | DEF | ABc |
d>DD | DEF | ABc | d>AA |EDD | D2 z |
